_inc/systems/logos/auto-platform.svg

<?xml version="1.0" encoding="utf-8"?>
<svg viewBox="0 0 200 40" xmlns="http://www.w3.org/2000/svg">
  <path d="M 37.59 24.985 L 37.59 24.985 L 33.862 24.985 L 33.08 29.504 L 27.368 29.504 L 30.675 10.802 L 39.695 10.802 L 39.695 10.802 C 43.102 10.802 44.806 12.377 44.806 15.53 L 44.806 15.53 L 44.806 15.53 C 44.806 17.026 44.596 18.376 44.175 19.579 L 44.175 19.579 L 44.175 19.579 C 43.753 20.789 43.29 21.751 42.782 22.461 L 42.782 22.461 L 42.782 22.461 C 42.267 23.168 41.562 23.766 40.667 24.258 L 40.667 24.258 L 40.667 24.258 C 39.778 24.743 38.753 24.985 37.59 24.985 Z M 36.838 15.59 L 35.516 15.59 L 34.704 20.198 L 36.027 20.198 L 36.027 20.198 C 36.708 20.198 37.222 20.124 37.57 19.978 L 37.57 19.978 L 37.57 19.978 C 37.924 19.826 38.152 19.48 38.252 18.941 L 38.252 18.941 L 38.252 18.941 C 38.512 17.465 38.642 16.657 38.642 16.518 L 38.642 16.518 L 38.642 16.518 C 38.642 16.138 38.492 15.889 38.191 15.769 L 38.191 15.769 L 38.191 15.769 C 37.891 15.65 37.439 15.59 36.838 15.59 L 36.838 15.59 Z M 56.862 24.716 L 56.021 29.504 L 44.596 29.504 L 47.903 10.802 L 53.615 10.802 L 51.15 24.716 L 56.862 24.716 Z M 61.342 26.542 L 60.17 29.504 L 54.157 29.504 L 62.064 10.802 L 70.903 10.802 L 72.226 29.504 L 66.183 29.504 L 66.063 26.542 L 61.342 26.542 Z M 65.612 16.548 L 65.311 16.548 L 63.206 21.784 L 65.612 21.784 L 65.612 16.548 Z M 89.093 10.802 L 88.22 15.59 L 84.071 15.59 L 81.637 29.504 L 75.924 29.504 L 78.359 15.59 L 74.24 15.59 L 75.112 10.802 L 89.093 10.802 Z M 100.788 18.104 L 99.976 22.562 L 95.106 22.562 L 93.903 29.504 L 88.191 29.504 L 91.498 10.802 L 103.223 10.802 L 101.63 15.59 L 96.339 15.59 L 95.917 18.104 L 100.788 18.104 Z M 109.808 17.055 L 109.808 17.055 L 108.425 24.836 L 110.8 24.836 L 110.8 24.836 C 111.582 24.836 112.163 24.743 112.544 24.556 L 112.544 24.556 L 112.544 24.556 C 112.925 24.364 113.175 23.928 113.296 23.25 L 113.296 23.25 L 114.679 15.47 L 112.273 15.47 L 112.273 15.47 C 111.512 15.47 110.94 15.563 110.559 15.75 L 110.559 15.75 L 110.559 15.75 C 110.179 15.942 109.928 16.378 109.808 17.055 Z M 113.265 10.353 L 113.265 10.353 L 113.265 10.353 C 115.811 10.353 117.625 10.848 118.707 11.839 L 118.707 11.839 L 118.707 11.839 C 119.79 12.824 120.331 14.343 120.331 16.398 L 120.331 16.398 L 120.331 16.398 C 120.331 18.452 120.003 20.603 119.348 22.851 L 119.348 22.851 L 119.348 22.851 C 118.7 25.092 117.668 26.834 116.252 28.078 L 116.252 28.078 L 116.252 28.078 C 114.842 29.328 112.777 29.953 110.058 29.953 L 110.058 29.953 L 110.058 29.953 C 107.345 29.953 105.448 29.461 104.366 28.477 L 104.366 28.477 L 104.366 28.477 C 103.284 27.486 102.742 25.963 102.742 23.908 L 102.742 23.908 L 102.742 23.908 C 102.742 22.931 102.883 21.641 103.163 20.038 L 103.163 20.038 L 103.163 20.038 C 103.444 18.429 103.815 17.043 104.275 15.879 L 104.275 15.879 L 104.275 15.879 C 104.737 14.709 105.358 13.694 106.139 12.837 L 106.139 12.837 L 106.139 12.837 C 107.643 11.181 110.018 10.353 113.265 10.353 Z M 134.852 23.28 L 136.837 29.504 L 130.553 29.504 L 129.17 23.939 L 127.938 23.939 L 126.975 29.504 L 121.263 29.504 L 124.57 10.802 L 133.59 10.802 L 133.59 10.802 C 137.017 10.802 138.731 12.328 138.731 15.38 L 138.731 15.38 L 138.731 15.38 C 138.731 16.637 138.541 17.834 138.16 18.971 L 138.16 18.971 L 138.16 18.971 C 137.458 21.125 136.356 22.562 134.852 23.28 L 134.852 23.28 Z M 130.553 15.59 L 129.411 15.59 L 128.749 19.331 L 130.072 19.331 L 130.072 19.331 C 130.754 19.331 131.268 19.257 131.616 19.111 L 131.616 19.111 L 131.616 19.111 C 131.97 18.958 132.21 18.529 132.337 17.823 L 132.337 17.823 L 132.337 17.823 C 132.47 17.113 132.537 16.677 132.537 16.518 L 132.537 16.518 L 132.537 16.518 C 132.537 16.118 132.384 15.862 132.076 15.75 L 132.076 15.75 L 132.076 15.75 C 131.763 15.642 131.254 15.59 130.553 15.59 L 130.553 15.59 Z M 146.639 20.437 L 144.684 29.504 L 138.731 29.504 L 143.121 10.802 L 150.577 10.802 L 151.118 20.317 L 151.328 20.317 L 155.237 10.802 L 162.694 10.802 L 160.468 29.504 L 154.486 29.504 L 155.748 20.437 L 155.537 20.437 L 151.779 29.504 L 147.42 29.504 L 146.789 20.437 L 146.639 20.437 Z M 177.095 18.104 L 176.313 22.442 L 170.601 22.442 L 170.21 24.716 L 177.215 24.716 L 176.373 29.504 L 163.655 29.504 L 166.962 10.802 L 179.53 10.802 L 177.967 15.59 L 171.803 15.59 L 171.382 18.104 L 177.095 18.104 Z M 193.18 23.28 L 195.164 29.504 L 188.88 29.504 L 187.497 23.939 L 186.265 23.939 L 185.302 29.504 L 179.59 29.504 L 182.898 10.802 L 191.917 10.802 L 191.917 10.802 C 195.344 10.802 197.058 12.328 197.058 15.38 L 197.058 15.38 L 197.058 15.38 C 197.058 16.637 196.868 17.834 196.487 18.971 L 196.487 18.971 L 196.487 18.971 C 195.786 21.125 194.683 22.562 193.18 23.28 L 193.18 23.28 Z M 188.88 15.59 L 187.738 15.59 L 187.077 19.331 L 188.399 19.331 L 188.399 19.331 C 189.081 19.331 189.595 19.257 189.943 19.111 L 189.943 19.111 L 189.943 19.111 C 190.297 18.958 190.537 18.529 190.664 17.823 L 190.664 17.823 L 190.664 17.823 C 190.797 17.113 190.865 16.677 190.865 16.518 L 190.865 16.518 L 190.865 16.518 C 190.865 16.118 190.711 15.862 190.404 15.75 L 190.404 15.75 L 190.404 15.75 C 190.09 15.642 189.582 15.59 188.88 15.59 L 188.88 15.59 Z" style="white-space: pre; fill: rgb(255, 255, 255);"/>
  <g id="layer2" fill="#d4d4d4" stroke="none" transform="matrix(0.008971, 0, 0, 0.008929, 2.942215, 9.999518)">
    <path d="M0 1120 l0 -1120 1120 0 1120 0 0 1120 0 1120 -1120 0 -1120 0 0 -1120z m300 920 l0 -100 -100 0 -100 0 0 100 0 100 100 0 100 0 0 -100z m1840 0 l0 -100 -100 0 -100 0 0 100 0 100 100 0 100 0 0 -100z m-780 -285 l0 -155 -160 0 -160 0 0 155 0 155 160 0 160 0 0 -155z m0 -485 l0 -160 160 0 160 0 0 -315 0 -315 -85 0 -85 0 0 -80 0 -80 -400 0 -400 0 0 80 0 80 -75 0 -75 0 0 240 0 240 160 0 160 0 0 -240 0 -240 240 0 240 0 0 240 0 240 -85 0 -85 0 0 75 0 75 -75 0 -75 0 0 160 0 160 160 0 160 0 0 -160z m-1060 -1070 l0 -100 -100 0 -100 0 0 100 0 100 100 0 100 0 0 -100z m1840 0 l0 -100 -100 0 -100 0 0 100 0 100 100 0 100 0 0 -100z" style="fill: rgb(204, 204, 204);"/>
  </g>
</svg>

<svg xmlns="http://www.w3.org/2000/svg" viewBox="0 0 200 40"><path d="M37.59 24.99h-3.73l-.78 4.51h-5.71l3.3-18.7h9.02q5.12 0 5.12 4.73 0 2.25-.64 4.05a12 12 0 0 1-1.39 2.88q-.77 1.05-2.11 1.8-1.34.72-3.08.72m-.75-9.4h-1.32l-.82 4.6h1.33q1.03 0 1.54-.21.53-.23.68-1.04.4-2.22.4-2.42 0-.57-.46-.75-.45-.18-1.35-.18m20.02 9.13-.84 4.78H44.6l3.3-18.7h5.72l-2.47 13.92zm4.48 1.82-1.17 2.96h-6.01l7.9-18.7h8.84l1.33 18.7h-6.05l-.12-2.96zm4.27-10h-.3l-2.1 5.24h2.4zM89.1 10.8l-.87 4.79h-4.15L81.64 29.5h-5.72l2.44-13.91h-4.12l.87-4.79zm11.7 7.3-.81 4.46H95.1l-1.2 6.94h-5.72l3.3-18.7h11.73l-1.59 4.79h-5.3l-.41 2.51zm9.02-1.05-1.39 7.79h2.38q1.17 0 1.74-.28.57-.3.76-1.31l1.38-7.78h-2.4q-1.15 0-1.72.28-.57.3-.75 1.3m3.45-6.7q3.82 0 5.45 1.49 1.62 1.47 1.62 4.56 0 3.07-.98 6.45a10.7 10.7 0 0 1-3.1 5.23q-2.1 1.87-6.2 1.87-4.05 0-5.68-1.47-1.63-1.5-1.63-4.57 0-1.47.42-3.87.42-2.42 1.12-4.16a10 10 0 0 1 1.86-3.04q2.25-2.49 7.13-2.49m21.6 12.93 1.98 6.22h-6.29l-1.38-5.56h-1.23l-.97 5.56h-5.7l3.3-18.7h9.02q5.14 0 5.14 4.58 0 1.88-.57 3.6-1.05 3.22-3.3 4.3m-4.3-7.69h-1.15l-.66 3.74h1.32q1.02 0 1.55-.22t.72-1.29q.2-1.05.2-1.3 0-.6-.46-.77-.48-.16-1.53-.16m16.08 4.85-1.96 9.06h-5.95l4.4-18.7h7.45l.54 9.52h.2l3.92-9.52h7.45l-2.22 18.7h-5.98l1.26-9.06h-.21l-3.76 9.06h-4.36l-.63-9.06zm30.46-2.34-.79 4.34h-5.7l-.4 2.28h7l-.84 4.78h-12.72l3.31-18.7h12.57l-1.56 4.79h-6.17l-.42 2.51zm16.08 5.18 1.98 6.22h-6.28l-1.38-5.56h-1.24l-.96 5.56h-5.71l3.3-18.7h9.03q5.13 0 5.14 4.58 0 1.88-.57 3.6-1.05 3.22-3.31 4.3m-4.3-7.69h-1.14l-.66 3.74h1.32q1.03 0 1.54-.22.54-.22.72-1.29.2-1.05.2-1.3 0-.6-.46-.77-.47-.16-1.52-.16" style="white-space:pre;fill:#fff"/><path fill="currentColor" d="M0 1120V0h2240v2240H0zm300 920v-100H100v200h200zm1840 0v-100h-200v200h200zm-780-285v-155h-320v310h320zm0-485v-160h320V480h-170V320H710v160H560v480h320V480h480v480h-170v150h-150v320h320zM300 200V100H100v200h200zm1840 0V100h-200v200h200z" style="fill:#ccc" transform="matrix(.00897 0 0 .00893 2.94 10)"/></svg>
